X:2325
T:Polska efter Niklas Larsson (EÖ13)
S:efter Niklas Larsson
B:EÖ, nr 13
O:Svarteborg, Bohuslän
R:Polska
Z:Nils L
M:3/4
L:1/8
K:D
f>(a g)>a fd | f>a ((3geg) fd | e>f (3geg fd | (3ABc (c<d) cA |
f>(a g)>a fd | f>a ((3geg) fd | e>f (3geg (3fdf | (3[Ae]Bc [dD]4 ::
A2 (FA) (GB) | (PBA) (GB) {B/2}A2- | A2 Aceg | !turn!f2 (3dfd (3cec |
d2 (FA) (GB) | (PBA) (GB) A2- | A2 Ac eg | !turn!f2 [dD]4 :|
(:musicend:)
(:music:)
